X: 11844
T: Elusive Magpie, The
R: jig
M: 6/8
K: Gmajor
=F|:DGG =FGA|c3 cBc|d2g fag|fdc AG=F|
DGG =FGA|c3 cBc|d2g fdc|1 AG=F G2=F:|2 AG=F G2D||
|:GBd g3|fag fdc|A=F2 c=F2|d=F2 c=F2|
DGG =FGA|c3 cBc|d2g fdc|1 AG=F G2D:|2 AG=F G2||

